src/assets/images/reactions/men/big/like.svg

<svg width="24" height="24" viewBox="0 0 24 24" fill="none" xmlns="http://www.w3.org/2000/svg">
<g clip-path="url(#clip0_860_5034)">
<path d="M0.542969 22.087V12.8696L4.9066 12L6.54297 12.8696L6.9066 22.087L5.8157 23.3043L1.63388 23.1304L0.542969 22.087Z" fill="#00819D"/>
<path d="M6.54688 22.7823V12.3475L9.45597 9.21705L12.0014 3.82575L12.1832 1.73879L12.9105 0.695312L14.7287 1.04314L15.8196 3.1301L14.3651 8.34749L14.9105 9.56488L19.8196 9.21705L22.5469 10.2605L22.9105 13.0431V17.391L21.8196 19.9997L20.9105 22.2605L18.1832 23.4779L6.54688 22.7823Z" fill="#FACCB4"/>
<path fill-rule="evenodd" clip-rule="evenodd" d="M12.6838 0.0322548C12.2669 0.157154 11.9445 0.476514 11.7655 0.942036C11.6259 1.30519 11.5532 1.90969 11.5896 2.40516L11.621 2.83393L11.335 3.53165C10.3885 5.84016 9.21583 8.04906 8.31976 9.21137C8.12355 9.46586 7.77662 9.84797 7.54881 10.0606C7.08366 10.4946 6.86251 10.7689 6.53366 11.32L6.30769 11.6986L5.98352 11.5911C5.66736 11.4863 5.61189 11.4835 3.75083 11.4824C1.71986 11.4811 1.6014 11.492 1.13272 11.7243C0.721538 11.9281 0.302831 12.4141 0.108695 12.9127C0.0218284 13.1358 0.0165711 13.3602 0.00282477 17.4422C-0.00609826 20.103 0.00644221 21.8501 0.0358641 22.0345C0.178295 22.9264 0.926672 23.6532 1.83417 23.7809C2.00144 23.8044 2.87628 23.8238 3.77823 23.8239C5.57369 23.824 5.87654 23.7927 6.31131 23.5625L6.55035 23.4358L7.43122 23.5379C9.68643 23.7993 11.2693 23.8964 14.4684 23.9697C16.2323 24.0101 16.9803 24.0101 17.4829 23.9696C19.4737 23.8093 20.9645 23.1943 21.7213 22.2211C22.1513 21.6681 22.3242 21.1584 22.3313 20.4227C22.3357 19.9605 22.3382 19.9508 22.4928 19.789C22.936 19.325 23.2704 18.7547 23.4026 18.2371C23.5124 17.807 23.505 17.1252 23.3856 16.6708L23.29 16.3068L23.4368 16.0991C23.8276 15.5463 24.041 14.8443 23.9934 14.2681C23.956 13.8146 23.7643 13.2485 23.5274 12.8918L23.3313 12.5966L23.4039 12.3895C23.6049 11.8152 23.6031 11.0877 23.3992 10.5424C23.269 10.194 22.9098 9.70693 22.5953 9.4522C21.401 8.48487 19.0715 8.27145 16.0426 8.85192C15.6374 8.92956 15.2755 8.9932 15.2384 8.9933C15.1835 8.99344 15.1768 8.91928 15.2027 8.59222C15.242 8.0945 15.3842 7.50337 15.7553 6.2946C16.1176 5.11432 16.2298 4.60956 16.2897 3.8895C16.3412 3.2711 16.3028 2.72851 16.1742 2.25801C15.8864 1.2047 15.0196 0.367949 13.9378 0.0993748C13.5519 0.00357622 12.8968 -0.0314858 12.6838 0.0322548ZM13.7033 1.44098C14.4238 1.67717 14.7914 2.1731 14.8915 3.04416C14.9736 3.7577 14.8343 4.57009 14.3939 5.94623C13.9308 7.39354 13.759 8.28445 13.7974 9.03901C13.8422 9.91829 14.2492 10.4003 14.948 10.4013C15.0429 10.4015 15.4987 10.3271 15.9609 10.236C17.3849 9.95532 17.7565 9.91533 18.9715 9.9119C19.8646 9.90937 20.1653 9.92547 20.5139 9.99442C21.9669 10.2818 22.4904 11.093 21.9604 12.2354C21.7215 12.7503 21.7354 12.8472 22.1129 13.2982C22.7857 14.102 22.7576 14.8156 22.0195 15.6697C21.7554 15.9752 21.7299 16.2243 21.9198 16.6455C22.0426 16.9182 22.0567 17.0022 22.0575 17.4656C22.0583 17.9423 22.0475 18.0034 21.9171 18.2624C21.8199 18.4553 21.6437 18.6693 21.3532 18.9471C21.1042 19.1854 20.9166 19.4061 20.8963 19.4847C20.8774 19.5581 20.8893 19.8123 20.9228 20.0498C20.994 20.5545 20.9498 20.8425 20.7447 21.2091C20.3943 21.8357 19.4634 22.3038 18.0892 22.5445C17.6858 22.6152 17.344 22.6252 15.6193 22.6168C12.3215 22.6007 9.78121 22.468 7.66095 22.2012L7.44391 22.1738L7.45963 18.0127C7.47063 15.1059 7.45871 13.7012 7.42008 13.3531C7.365 12.8568 7.36534 12.8533 7.50333 12.5082C7.74787 11.8968 8.01238 11.519 8.60052 10.9413C9.51116 10.0469 10.24 8.98283 11.1544 7.21283C11.7268 6.10498 12.2388 4.99294 12.6948 3.86678L13.0128 3.08176L13.0017 2.38826C12.9956 2.00685 13.0079 1.61558 13.029 1.51875C13.0645 1.35616 13.0802 1.34274 13.2355 1.34274C13.328 1.34274 13.5385 1.38695 13.7033 1.44098ZM5.6839 12.9479C5.77159 13.006 5.88874 13.1132 5.94426 13.186C6.04492 13.3183 6.04516 13.329 6.04516 17.625V21.9315L5.91513 22.1227C5.68467 22.4617 5.62674 22.47 3.62495 22.4545C1.9492 22.4415 1.87468 22.4371 1.74687 22.3442C1.67365 22.2909 1.56899 22.1891 1.51429 22.1178C1.41575 21.9894 1.41474 21.948 1.40205 17.7056L1.38922 13.4231L1.49972 13.2198C1.70582 12.8405 1.69482 12.8423 3.73419 12.8423C5.51137 12.8423 5.5256 12.8431 5.6839 12.9479Z" fill="#E2A88A"/>
<path d="M5.79241 11.2H0.607595C0.272221 11.2 0 11.5005 0 11.8708V23.3206C0 23.6913 0.272221 23.9915 0.607595 24H4.49619C5.24109 23.9915 5.88718 23.5169 6.1995 22.8272C6.32791 22.545 6.4 22.2261 6.4 21.8894V11.8708C6.4 11.5005 6.12778 11.2 5.79241 11.2Z" fill="#00819D"/>
</g>
<defs>
<clipPath id="clip0_860_5034">
<rect width="24" height="24" fill="white"/>
</clipPath>
</defs>
</svg>

<svg xmlns="http://www.w3.org/2000/svg" width="24" height="24" fill="none">
  <g clip-path="url(#a)">
    <path fill="#00819D" d="M.543 22.087V12.87L4.907 12l1.636.87.364 9.217-1.091 1.217-4.182-.174-1.091-1.043Z"/>
    <path fill="#FACCB4" d="M6.547 22.782V12.348l2.909-3.131 2.545-5.391.182-2.087.728-1.044 1.818.348 1.09 2.087-1.454 5.217.546 1.218 4.909-.348 2.727 1.043.363 2.783v4.348L21.82 20l-.91 2.26-2.727 1.218-11.636-.696Z"/>
    <path fill="#E2A88A" fill-rule="evenodd" d="M12.684.032c-.417.125-.74.445-.918.91-.14.363-.213.968-.176 1.463l.031.429-.286.698c-.947 2.308-2.12 4.517-3.015 5.68a8.519 8.519 0 0 1-.771.849 4.89 4.89 0 0 0-1.015 1.259l-.226.379-.324-.108c-.317-.105-.372-.107-2.233-.109-2.031 0-2.15.01-2.618.242-.411.204-.83.69-1.024 1.189-.087.223-.092.447-.106 4.53-.01 2.66.003 4.407.033 4.591.142.892.89 1.62 1.798 1.747.167.023 1.042.043 1.944.043 1.796 0 2.099-.031 2.533-.262l.24-.126.88.102c2.255.261 3.838.358 7.037.432 1.764.04 2.512.04 3.015 0 1.99-.16 3.482-.776 4.238-1.749.43-.553.603-1.063.61-1.798.005-.462.007-.472.162-.634.443-.464.777-1.034.91-1.552.11-.43.102-1.112-.017-1.566l-.096-.364.147-.208c.39-.553.604-1.255.556-1.83-.037-.454-.229-1.02-.466-1.377l-.196-.295.073-.207c.2-.575.2-1.302-.005-1.848-.13-.348-.49-.835-.804-1.09-1.194-.967-3.523-1.18-6.552-.6-.406.078-.768.141-.805.141-.054 0-.061-.074-.035-.4.039-.498.181-1.09.552-2.298.363-1.18.475-1.685.535-2.405.051-.619.013-1.161-.116-1.632-.288-1.053-1.154-1.89-2.236-2.159-.386-.095-1.041-.13-1.254-.067Zm1.02 1.409c.72.236 1.087.732 1.188 1.603.082.714-.058 1.526-.498 2.902-.463 1.448-.635 2.338-.597 3.093.045.88.452 1.361 1.151 1.362.095 0 .55-.074 1.013-.165 1.424-.28 1.795-.32 3.01-.324.894-.003 1.194.013 1.543.082 1.453.288 1.976 1.099 1.446 2.241-.239.515-.225.612.153 1.063.673.804.645 1.518-.093 2.372-.265.305-.29.554-.1.975.123.273.137.357.137.82.001.477-.01.538-.14.797-.097.193-.273.407-.564.685-.249.238-.436.46-.457.538-.019.073-.007.327.027.565.071.505.027.793-.178 1.16-.35.626-1.282 1.094-2.656 1.334-.403.071-.745.081-2.47.073-3.297-.016-5.838-.149-7.958-.416l-.217-.027.016-4.161c.01-2.907-.001-4.312-.04-4.66-.055-.496-.055-.5.083-.845.245-.611.51-.989 1.098-1.567.91-.894 1.639-1.958 2.553-3.728a39.908 39.908 0 0 0 1.54-3.346l.319-.785-.011-.694c-.006-.381.006-.772.027-.87.036-.162.051-.175.207-.175.092 0 .303.044.467.098Zm-8.02 11.507c.088.058.205.165.26.238.1.132.101.143.101 4.439v4.306l-.13.192c-.23.339-.288.347-2.29.331-1.676-.012-1.75-.017-1.878-.11a1.365 1.365 0 0 1-.233-.226c-.098-.129-.1-.17-.112-4.412l-.013-4.283.11-.203c.207-.38.196-.378 2.235-.378 1.777 0 1.792.001 1.95.106Z" clip-rule="evenodd"/>
    <path fill="#00819D" d="M5.792 11.2H.608c-.336 0-.608.3-.608.67v11.45c0 .371.272.671.608.68h3.888c.745-.009 1.391-.483 1.703-1.173.129-.282.201-.6.201-.938V11.871c0-.37-.272-.671-.608-.671Z"/>
  </g>
  <defs>
    <clipPath id="a">
      <path fill="#fff" d="M0 0h24v24H0z"/>
    </clipPath>
  </defs>
</svg>
